assets/svg/go-cleaning-female.svg

<svg width="77" height="83" viewBox="0 0 77 83" fill="none" xmlns="http://www.w3.org/2000/svg">
<path d="M75.984 62.6509H66.7627L58.2074 56.4025C57.3747 55.7978 56.2089 55.9731 55.604 56.8056C54.9993 57.6382 55.1746 58.8037 56.0074 59.4084L60.4251 62.6509H57.4799C56.8488 62.6509 56.3579 63.2293 56.4718 63.8515L59.1892 79.6435C59.2768 80.1343 59.6976 80.4935 60.1972 80.4935H73.3455C73.8452 80.4935 74.2747 80.1342 74.3536 79.6347L76.9832 63.8427C77.0972 63.2206 76.6151 62.6509 75.984 62.6509ZM66.6662 68.172C65.8773 68.2946 65.1411 67.7513 65.0183 66.9626C64.9744 66.6559 65.027 66.3579 65.1585 66.095C65.3602 65.6919 65.7547 65.3852 66.2368 65.3151C66.7715 65.2363 67.2886 65.4554 67.5954 65.8584C67.7443 66.0512 67.8495 66.2791 67.8847 66.5332C67.9986 67.3133 67.4639 68.0493 66.6662 68.172Z" fill="#32B8E9"/>
<path d="M28.7026 19.4902C30.8151 19.4902 33.138 18.3159 33.138 18.3159C32.0423 17.6762 31.4814 16.4054 31.2096 15.126C32.358 17.0277 34.3477 18.2809 36.6004 18.2809C38.8532 18.2809 40.8429 17.0277 41.9912 15.126C41.7195 16.4142 41.1585 17.6762 40.0628 18.3159C40.0628 18.3159 42.3857 19.4902 44.4983 19.4902C45.8657 19.4902 47.1542 18.9995 47.6626 17.3607C47.7415 17.1153 47.6363 16.8524 47.4084 16.7385C46.6459 16.3266 44.9716 15.1435 44.9716 12.7072C44.9716 9.55232 45.7605 0 36.6005 0C27.4405 0 28.2294 9.55232 28.2294 12.7072C28.2294 15.1435 26.5552 16.3266 25.7926 16.7385C25.5647 16.8612 25.4595 17.1241 25.5384 17.3607C26.0467 18.9907 27.3351 19.4902 28.7026 19.4902Z" fill="#32B8E9"/>
<path d="M57.6027 47.674C58.9438 46.675 59.2243 44.7732 58.225 43.4325L43.7005 23.9072C40.6063 19.7883 34.4441 19.9723 30.596 22.838C30.5872 22.8468 18.5609 31.7944 18.5609 31.7944L11.2942 27.7719V34.7038L17.3337 38.0515C17.7895 38.3057 18.2979 38.4284 18.8063 38.4284C19.4462 38.4284 20.0861 38.2268 20.6208 37.8324L27.4755 32.732V40.26L20.2176 60.5039C19.9634 61.1787 20.4718 61.906 21.1906 61.906H27.4755V77.5841C27.4755 79.8363 29.2987 81.6592 31.5514 81.6592C33.8042 81.6592 35.6274 79.8363 35.6274 77.5841V61.8885H37.5908V77.5666C37.5908 79.8187 39.4142 81.6416 41.6668 81.6416C43.9196 81.6416 45.7428 79.8187 45.7428 77.5666V61.8885H52.0277C52.7552 61.8885 53.2549 61.1699 53.0008 60.4863L45.7428 40.2424V36.7808L53.3777 47.043C53.9737 47.8405 54.8854 48.2611 55.8145 48.2611C56.4281 48.2699 57.0592 48.0772 57.6027 47.674Z" fill="#32B8E9"/>
<path d="M9.62879 60.7317V5.10041C9.62879 4.13642 8.83989 3.34769 7.87567 3.34769C6.91146 3.34769 6.12256 4.13642 6.12256 5.10041V60.5302C6.56084 60.4425 7.01665 60.3987 7.46369 60.3987C8.19991 60.3987 8.93631 60.5126 9.62879 60.7317Z" fill="#32B8E9"/>
<path d="M20.6559 80.853C17.7632 79.407 15.4053 76.5938 15.4053 72.8168C15.4053 69.0396 13.1876 67.4009 12.311 66.9014C11.2504 66.4895 10.0145 66.2003 8.6821 66.0864C8.28765 66.0513 7.87567 66.0337 7.46369 66.0337C7.28838 66.0337 7.1043 66.0337 6.92899 66.0425C5.0181 66.1126 3.25622 66.542 1.8888 67.2168C-0.179875 68.5927 0.00420154 71.546 0.00420154 71.546C0.00420154 80.9142 7.04294 83 13.3103 83C16.0715 83 18.6836 82.5968 20.4718 82.2287C21.1643 82.0974 21.287 81.1684 20.6559 80.853Z" fill="#32B8E9"/>
<path d="M5.78938 64.281C6.14877 64.246 6.51692 64.2196 6.88508 64.2109C7.07792 64.2021 7.27076 64.2021 7.4636 64.2021C7.91941 64.2021 8.36646 64.2195 8.80474 64.2547C9.17289 64.281 9.54104 64.3248 9.90043 64.3774C10.2072 64.4212 10.5053 64.4738 10.8033 64.5351C11.0312 64.5877 11.2591 64.6403 11.487 64.6929C11.3643 64.4299 11.2328 64.1846 11.0838 63.9655C10.8822 63.6675 10.663 63.4046 10.4351 63.1943C10.2598 63.0364 10.0757 62.905 9.8829 62.8087C9.80401 62.7649 9.71635 62.7298 9.63746 62.6948C8.95375 62.3968 8.21744 62.2391 7.47237 62.2391C7.01656 62.2391 6.56952 62.3004 6.13124 62.4143C5.85074 62.4844 5.57024 62.5808 5.29851 62.7035C5.21962 62.7386 5.14073 62.7736 5.06184 62.8087C4.869 62.9051 4.67616 63.0453 4.49208 63.2118C4.08886 63.5799 3.72948 64.097 3.45774 64.6929C3.91355 64.5789 4.38689 64.4738 4.87776 64.3949C5.17579 64.3511 5.47391 64.3073 5.78938 64.281Z" fill="#32B8E9"/>
</svg>

<svg width="77" height="83" fill="none" xmlns="http://www.w3.org/2000/svg"><path d="M75.984 62.65h-9.221l-8.556-6.247a1.863 1.863 0 10-2.2 3.005l4.418 3.243H57.48c-.631 0-1.122.578-1.008 1.2l2.717 15.793c.088.49.509.85 1.008.85h13.148c.5 0 .93-.36 1.009-.86l2.63-15.791a1.013 1.013 0 00-1-1.192zm-9.318 5.522a1.445 1.445 0 01-1.648-1.21 1.463 1.463 0 01.14-.867 1.44 1.44 0 011.079-.78 1.44 1.44 0 011.358.543c.15.193.255.421.29.675.114.78-.421 1.516-1.219 1.639zM28.703 19.49c2.112 0 4.435-1.174 4.435-1.174-1.096-.64-1.657-1.91-1.928-3.19 1.148 1.902 3.138 3.155 5.39 3.155 2.253 0 4.243-1.253 5.391-3.155-.272 1.288-.833 2.55-1.928 3.19 0 0 2.323 1.174 4.435 1.174 1.368 0 2.656-.49 3.165-2.13a.514.514 0 00-.255-.622c-.762-.411-2.436-1.595-2.436-4.03C44.972 9.551 45.76 0 36.6 0s-8.37 9.552-8.37 12.707c0 2.436-1.675 3.62-2.437 4.031a.522.522 0 00-.255.623c.509 1.63 1.797 2.13 3.165 2.13zM57.603 47.674a3.033 3.033 0 00.622-4.242L43.7 23.907c-3.094-4.119-9.256-3.935-13.104-1.069-.009.009-12.035 8.956-12.035 8.956l-7.267-4.022v6.932l6.04 3.347a3.06 3.06 0 003.287-.22l6.854-5.099v7.528l-7.257 20.244a1.042 1.042 0 00.973 1.402h6.285v15.678a4.073 4.073 0 004.075 4.075 4.073 4.073 0 004.076-4.075V61.888h1.964v15.679a4.074 4.074 0 004.076 4.075 4.073 4.073 0 004.076-4.075V61.889h6.285c.727 0 1.227-.72.973-1.403l-7.258-20.244v-3.461l7.635 10.262a3.03 3.03 0 002.437 1.218 2.933 2.933 0 001.788-.587zM9.629 60.732V5.1c0-.964-.79-1.752-1.753-1.752-.965 0-1.753.788-1.753 1.752v55.43a6.884 6.884 0 011.34-.131c.737 0 1.473.114 2.166.333zM20.656 80.853c-2.893-1.446-5.25-4.26-5.25-8.036 0-3.777-2.218-5.416-3.095-5.916-1.06-.411-2.296-.7-3.629-.815a13.844 13.844 0 00-1.218-.052c-.176 0-.36 0-.535.008-1.91.07-3.673.5-5.04 1.175C-.18 68.593.004 71.546.004 71.546.004 80.914 7.043 83 13.31 83c2.761 0 5.374-.403 7.162-.771.692-.132.815-1.06.184-1.376zM5.79 64.281c.359-.035.727-.061 1.095-.07.193-.009.386-.009.579-.009a16.75 16.75 0 013.34.333l.683.158a5.212 5.212 0 00-.403-.727 4.429 4.429 0 00-.649-.772 2.508 2.508 0 00-.552-.385c-.079-.044-.167-.08-.246-.114a5.314 5.314 0 00-3.506-.28c-.28.07-.56.166-.832.288l-.237.106a2.615 2.615 0 00-.57.403c-.403.368-.763.885-1.034 1.48.456-.113.929-.218 1.42-.297.298-.044.596-.088.911-.114z" fill="#32B8E9"/></svg>
